storage/app/icons/tabler/filled/adjustments.svg

<!--
version: "2.3"
unicode: "f6ec"
-->
<svg
  xmlns="http://www.w3.org/2000/svg"
  width="24"
  height="24"
  viewBox="0 0 24 24"
  fill="currentColor"
>
  <path d="M6 3a1 1 0 0 1 .993 .883l.007 .117v3.171a3.001 3.001 0 0 1 0 5.658v7.171a1 1 0 0 1 -1.993 .117l-.007 -.117v-7.17a3.002 3.002 0 0 1 -1.995 -2.654l-.005 -.176l.005 -.176a3.002 3.002 0 0 1 1.995 -2.654v-3.17a1 1 0 0 1 1 -1z" />
  <path d="M12 3a1 1 0 0 1 .993 .883l.007 .117v9.171a3.001 3.001 0 0 1 0 5.658v1.171a1 1 0 0 1 -1.993 .117l-.007 -.117v-1.17a3.002 3.002 0 0 1 -1.995 -2.654l-.005 -.176l.005 -.176a3.002 3.002 0 0 1 1.995 -2.654v-9.17a1 1 0 0 1 1 -1z" />
  <path d="M18 3a1 1 0 0 1 .993 .883l.007 .117v.171a3.001 3.001 0 0 1 0 5.658v10.171a1 1 0 0 1 -1.993 .117l-.007 -.117v-10.17a3.002 3.002 0 0 1 -1.995 -2.654l-.005 -.176l.005 -.176a3.002 3.002 0 0 1 1.995 -2.654v-.17a1 1 0 0 1 1 -1z" />
</svg>

<svg xmlns="http://www.w3.org/2000/svg" width="24" height="24" fill="currentColor" viewBox="0 0 24 24"><path d="M6 3a1 1 0 0 1 .993.883L7 4v3.171a3.001 3.001 0 0 1 0 5.658V20a1 1 0 0 1-1.993.117L5 20v-7.17a3 3 0 0 1-1.995-2.654L3 10l.005-.176A3 3 0 0 1 5 7.17V4a1 1 0 0 1 1-1m6 0a1 1 0 0 1 .993.883L13 4v9.171a3.001 3.001 0 0 1 0 5.658V20a1 1 0 0 1-1.993.117L11 20v-1.17a3 3 0 0 1-1.995-2.654L9 16l.005-.176A3 3 0 0 1 11 13.17V4a1 1 0 0 1 1-1m6 0a1 1 0 0 1 .993.883L19 4v.171a3.001 3.001 0 0 1 0 5.658V20a1 1 0 0 1-1.993.117L17 20V9.83a3 3 0 0 1-1.995-2.654L15 7l.005-.176A3 3 0 0 1 17 4.17V4a1 1 0 0 1 1-1"/></svg>
